assets/hexlet/mono.svg

<svg viewBox="0 0 24 24" xmlns="http://www.w3.org/2000/svg"><path d="m16.732 7.099v6.422h-9.464v-6.422l-2.705-1.014v17.915h2.705v-7.775h9.464v7.775h2.705v-17.915zm3.043-4.057-7.775-3.042-7.775 3.042 7.775 2.704z"/></svg>

<svg xmlns="http://www.w3.org/2000/svg" viewBox="0 0 24 24"><path d="M16.732 7.099v6.422H7.268V7.099L4.563 6.085V24h2.705v-7.775h9.464V24h2.705V6.085zm3.043-4.057L12 0 4.225 3.042 12 5.746z"/></svg>
